svgs/regular/align-right.svg

<svg xmlns="http://www.w3.org/2000/svg" viewBox="0 0 448 512"><!--! Font Awesome Pro 6.3.0 by @fontawesome - https://fontawesome.com License - https://fontawesome.com/license (Commercial License) Copyright 2023 Fonticons, Inc. --><path d="M424 40c13.3 0 24 10.7 24 24s-10.7 24-24 24H184c-13.3 0-24-10.7-24-24s10.7-24 24-24H424zm0 128c13.3 0 24 10.7 24 24s-10.7 24-24 24H24c-13.3 0-24-10.7-24-24s10.7-24 24-24H424zm24 152c0 13.3-10.7 24-24 24H184c-13.3 0-24-10.7-24-24s10.7-24 24-24H424c13.3 0 24 10.7 24 24zM424 424c13.3 0 24 10.7 24 24s-10.7 24-24 24H24c-13.3 0-24-10.7-24-24s10.7-24 24-24H424z"/></svg>

<svg xmlns="http://www.w3.org/2000/svg" viewBox="0 0 448 512"><!--! Font Awesome Pro 6.2.0 by @fontawesome - https://fontawesome.com License - https://fontawesome.com/license (Commercial License) Copyright 2022 Fonticons, Inc. --><path d="M424 40C437.3 40 448 50.75 448 64C448 77.25 437.3 88 424 88H184C170.7 88 160 77.25 160 64C160 50.75 170.7 40 184 40H424zM424 168C437.3 168 448 178.7 448 192C448 205.3 437.3 216 424 216H24C10.75 216 0 205.3 0 192C0 178.7 10.75 168 24 168H424zM424 344H184C170.7 344 160 333.3 160 320C160 306.7 170.7 296 184 296H424C437.3 296 448 306.7 448 320C448 333.3 437.3 344 424 344zM424 424C437.3 424 448 434.7 448 448C448 461.3 437.3 472 424 472H24C10.75 472 0 461.3 0 448C0 434.7 10.75 424 24 424H424z"/></svg>
